X:86
T:The Rights of Man
N:Hornpipe  Allan's # 86  pg 22
N:Trad/Anon
N:CONVERTED FROM NOTEWORTHY COMPOSER  (WWW.NOTEWORTHYSOFTWARE.COM) BY
N:ABC2NWC (HTTP://MEMBERS.AOL.COM/ABACUSMUSIC/), WITH
Z: (INTO NWC) VINCE BRENNAN 2002   (WWW.SOSYOURMOM.COM)
I:abc2nwc
M:4/4
L:1/8
K:G
(G3/2A/2)  | ((3Bcd) A3/2B/2G3/2A/2F3/2G/2|E3/2F/2G3/2A/2B2e3/2f/2|g3/2f/2e3/2d/2 B3/2d/2e3/2f/2|g3/2e/2d3/2B/2A2G3/2A/2|
((3BcB) ((3ABA)  G3/2A/2G3/2F/2|E3/2F/2G3/2A/2 B2e3/2f/2|g3/2f/2e3/2d/2 B3/2f/2e3/2f/2|e2E2E2:|
|:g3/2a/2| b3/2a/2g3/2f/2  e3/2f/2g3/2a/2| b3/2g/2e3/2d/2  e3/2g/2f3/2e/2|d2 {e} d3/2c/2 d3/2e/2f3/2g/2|a3/2f/2d3/2f/2 a2g3/2f/2|
 e3/2d/2e3/2f/2 g3/2f/2g3/2a/2|b3/2g/2e3/2f/2 g3/2a/2b3/2a/2|g3/2f/2e3/2d/2 B3/2g/2f3/2g/2|e2E2E2:|
